X: 10815
T: Drake's Neck, The
R: reel
M: 4/4
K: Dmajor
AG|FEE2 FDDG|EF{E}FA dBAG|FEE2 FDDG|BecA dBAG|
FEE2 FDDG|EF{E}FA dBAG|FAEG FDDA|BecA dAFA||
Beed efed|(3Bcd ef gefd|Bdef gfed|ABBc dAFA|
Beed efed|(3Bcd ef gefg|af (3gfe fdeB|cgec dBAG||

